!!!!SEGMENT: pl-wn--mus-iii-75-631-cim_wieniawski-henryk--spiew-polski-rozumiem.krn
!!!cenid: 18xx:3805
!!!COM: Wieniawski, Henryk
!!!COM-rismID: pe137176
!!!CDT: 1835/07/10-1880/03/31
!!!CNT:
!!!OTL: Śpiew Polski/Rozumiem
!!!PDT:
!!!AGN:
!!!YEC: Copyright 2022 Narodowy Instytut Fryderyka Chopina (https://polishscores.org)
!!!YEM: License CC-BY-4.0 (https://creativecommons.org/licenses/by/4.0)
!!!SMS-siglum: PL-Wn
!!!SMS-shelfmark: Mus.III.75.631 Cim.
!!!SMS-shelfwork: W
!!!SMS-variant:
!!!SMS-altvar:
!!!NIFC-rismSourceID:
!!!NIFC-rismChildID:
!!!NIFC-islandoraID: none
!!!URL-pdf-islandora:
!!!URL-scan: https://polona2.pl/item/spiew-polski-rozumiem,NzE0MjM4NjY/4 @EN{Scan on Polona} @PL{Skany w portalu Polona}
!!!IIIF: https://polona2.pl/iiif/item/NzE0MjM4NjY/manifest.json
!!!ONB-nifc:
!!!AIN: 1 piano 1 soprn
!!!key: d
!!!OMD:
!!!OMD-mod: Andantino
**kern	**kern	**dynam	**kern	**text	**text	**dynam
*part2	*part2	*	*part1	*	*	*
*staff3	*staff2	*	*staff1	*	*	*
*I"Piano.	*I"Piano.	*	*I"	*	*	*
*Ipiano	*Ipiano	*	*Isoprn	*	*	*
*mI"Pianoforte	*mI"Pianoforte	*	*mI"Soprano	*	*	*
*ICklav	*ICklav	*	*ICvox	*	*	*
*IGacmp	*IGacmp	*	*IGsolo	*	*	*
*>[A,B,B,C]	*>[A,B,B,C]	*	*>[A,B,B,C]	*	*	*
*clefF4	*clefG2	*	*clefG2	*	*	*
*k[b-]	*k[b-]	*	*k[b-]	*	*	*
*d:	*d:	*	*d:	*	*	*
*M3/4	*M3/4	*	*M3/4	*	*	*
=1	=1	=1	=1	=1	=1	=1
*xywh-#7:316,282,2449,907	*xywh-#7:316,282,2449,907	*xywh-#7:316,282,2449,907	*xywh-#7:316,282,2449,907	*xywh-#7:316,282,2449,907	*	*
*>A	*>A	*	*>A	*	*	*
!	!LO:TX:B:t=Andantino.:mod=	!	!	!	!	!
4AAA^>/	8b-^\	.	2.r	.	.	.
.	8r	.	.	.	.	.
4B-\ 4G\ 4C#X\	4.a/	.	.	.	.	.
4B-\ 4G\ 4C#\	.	.	.	.	.	.
.	8g/	.	.	.	.	.
=2	=2	=2	=2	=2	=2	=2
4B-\ 4G\ 4C#X\	8.b-\L	.	2.r	.	.	.
.	16cc#X\Jk	.	.	.	.	.
4B-\ 4G\ 4C#\	4ff\	.	.	.	.	.
4c#X\ 4B-\ 4G\	4ee\	.	.	.	.	.
=3	=3	=3	=3	=3	=3	=3
4AAA^>/	8.ee\L	.	2.r	.	.	.
.	16dd\Jk	.	.	.	.	.
4d\ 4A\ 4F\	4f/	.	.	.	.	.
4d\ 4A\ 4F\	4g/	.	.	.	.	.
=4	=4	=4	=4	=4	=4	=4
4d\ 4A\ 4F\	2.a/	.	2.r	.	.	.
4d\ 4A\ 4F\	.	.	.	.	.	.
4d\ 4A\ 4F\	.	.	.	.	.	.
=5	=5	=5	=5	=5	=5	=5
4AAA^>/	8b-^\	.	2.r	.	.	.
.	8r	.	.	.	.	.
4B-\ 4G\ 4C#X\	4.a/	.	.	.	.	.
4B-\ 4G\ 4C#\	.	.	.	.	.	.
.	8g/	.	.	.	.	.
=6	=6	=6	=6	=6	=6	=6
4B-\ 4G\ 4C#X\	8.b-\L	.	2.r	.	.	.
.	16cc#X\Jk	.	.	.	.	.
4B-\ 4G\ 4C#\	4ff\	.	.	.	.	.
4c#X\ 4B-\ 4G\	4ee\	.	.	.	.	.
!!LO:LB:g=original
=7	=7	=7	=7	=7	=7	=7
*xywh-#7:310,1221,2465,512	*xywh-#7:310,1221,2465,512	*xywh-#7:310,1221,2465,512	*xywh-#7:310,1221,2465,512	*xywh-#7:310,1221,2465,512	*	*
4AAA^>/	8.ee\L	.	2.r	.	.	.
.	16dd\Jk	.	.	.	.	.
4d\ 4A\ 4F\	4f/	.	.	.	.	.
4d\ 4A\ 4F\	4g/	.	.	.	.	.
=8	=8	=8	=8	=8	=8	=8
4d\ 4A\ 4F\	2a/	.	2.r	.	.	.
4d\ 4A\ 4F\	.	.	.	.	.	.
4d\ 4A\ 4F\	4a/	.	.	.	.	.
=9	=9	=9	=9	=9	=9	=9
4FF#X^>/	8ee-X\	.	2.r	.	.	.
.	8r	.	.	.	.	.
4f#X\ 4e-X\ 4A\	4.dd\	.	.	.	.	.
4f#\ 4e-\ 4A\	.	.	.	.	.	.
.	8cc\	.	.	.	.	.
=10	=10	=10	=10	=10	=10	=10
4f#X\ 4e-X\ 4A\	8.ee-X\L	.	2.r	.	.	.
.	16ff#X\Jk	.	.	.	.	.
4f#\ 4e-\ 4A\	4bb-\	.	.	.	.	.
4f#\ 4e-\ 4A\	4aa\	.	.	.	.	.
=11	=11	=11	=11	=11	=11	=11
4GG^>/	8.aa\L	.	2.r	.	.	.
.	16gg\Jk	.	.	.	.	.
4g\ 4d\ 4B-\	4b-\	.	.	.	.	.
4g\ 4d\ 4B-\	4cc\	.	.	.	.	.
=12	=12	=12	=12	=12	=12	=12
4g\ 4d\ 4B-\	[2.dd\	.	2.r	.	.	.
4g\ 4d\ 4B-\	.	.	.	.	.	.
4g\ 4d\ 4B-\	.	.	.	.	.	.
!!LO:LB:g=original
=13	=13	=13	=13	=13	=13	=13
*xywh-#7:326,1760,2454,912	*xywh-#7:326,1760,2454,912	*xywh-#7:326,1760,2454,912	*xywh-#7:326,1760,2454,912	*xywh-#7:326,1760,2454,912	*xywh-#7:326,1760,2454,912	*
4AA^>/	8.dd\L]	.	2.r	.	.	.
.	16a\Jk	.	.	.	.	.
4d\ 4A\ 4F\	4f/	.	.	.	.	.
4d\ 4A\ 4F\	4b-/	.	.	.	.	.
=14	=14	=14	=14	=14	=14	=14
4d\ 4A\ 4E\	2.a/	.	2.r	.	.	.
4d\ 4A\ 4E\	.	.	.	.	.	.
4c#X\ 4A\ 4E\	.	.	.	.	.	.
=15	=15	=15	=15	=15	=15	=15
2.D\	(8.d/L	.	2.r	.	.	.
.	16B-/Jk)	.	.	.	.	.
.	(4A/	.	.	.	.	.
.	4F</)	.	.	.	.	.
=16	=16	=16	=16	=16	=16	=16
8.D/L	2.ryy	.	2.r	.	.	.
16BB-/Jk	.	.	.	.	.	.
4AA/	.	.	.	.	.	.
4DD/	.	.	.	.	.	.
=17!|:	=17!|:	=17!|:	=17!|:	=17!|:	=17!|:	=17!|:
*>B	*>B	*	*>B	*	*	*
[>2.AA\ [2.AAA\	4c#X</ 4B-</ 4G</	.	8.b-\L	Pod	Tyś	.
.	.	.	16b-\Jk	wierz-	jest	.
.	4c#</ 4B-</ 4G</	.	4.a/	-ba-	me	.
.	4c#</ 4B-</ 4G</	.	.	.	.	.
.	.	.	8g/	-mi	u-	.
=18	=18	=18	=18	=18	=18	=18
2.AA\] 2.AAA\]	4c#X</ 4B-</ 4G</	.	8.b-\L	nad	-szczę-	.
!	!	!	!	!	!LO:MO:mod=-śli-	!
.	.	.	16cc#X\Jk	stru-	-sli-	.
.	4c#</ 4B-</ 4G</	.	4ff\	-mie-	-wie-	.
.	4c#</ 4B-</ 4G</	.	4ee\	-niem	-nie,	.
!!LO:LB:g=original
=19	=19	=19	=19	=19	=19	=19
*xywh-#7:342,2646,2428,880	*xywh-#7:342,2646,2428,880	*xywh-#7:342,2646,2428,880	*xywh-#7:342,2646,2428,880	*xywh-#7:342,2646,2428,880	*xywh-#7:342,2646,2428,880	*
[>2.AA\ [2.AAA\	4d</ 4A</ 4F</	.	8.ee\L	śpie-	mi-	.
!	!	!	!	!LO:MO:mod=-wał	!	!
.	.	.	16dd\Jk	-wal	-łość	.
.	4d</ 4A</ 4F</	.	4f/	My-	twa	.
.	4d</ 4A</ 4F</	.	4b-/	-ron	na-	.
=20	=20	=20	=20	=20	=20	=20
2.AA\] 2.AAA\]	4d</ 4A</ 4F</	.	8.a/L	swej	-gro-	.
.	.	.	16a/Jk	Gly-	-da	.
.	4d</ 4A</ 4F</	.	4g#X/	-ce-	ca-	.
.	4d</ 4A</ 4F</	.	4a/	-rze:	-ła,	.
=21	=21	=21	=21	=21	=21	=21
[>2.AA\ [2.AAA\	4c#X</ 4B-</ 4G</	.	8.b-/L	Wierz	choć	.
.	.	.	16b-/Jk	mi,	byś	.
.	4c#</ 4B-</ 4G</	.	4.a/	ko-	nie-	.
.	4c#</ 4B-</ 4G</	.	.	.	.	.
.	.	.	8g/	-cham,	-na-	.
=22	=22	=22	=22	=22	=22	=22
2.AA\] 2.AAA\]	4c#X</ 4B-</ 4G</	.	8.b-\L	ko-	-wi-	.
.	.	.	16cc#X\Jk	-cham	-dzieć-	.
.	4c#</ 4B-</ 4G</	.	4ff\	szcze-	-mia-	.
.	4c#</ 4B-</ 4G</	.	4ee\	-rze,	-ła,	.
=23	=23	=23	=23	=23	=23	=23
[>2.AA\ [2.AAA\	4d</ 4A</ 4F</	.	8.ee\L	wierz	ja	.
.	.	.	16dd\Jk	mi,	się	.
.	4d</ 4A</ 4F</	.	4f/	ko-	ni-	.
.	4d</ 4A</ 4F</	.	4b-\	-cham	-gdy	.
!!LO:PB:g=original
=24	=24	=24	=24	=24	=24	=24
*xywh-#8:262,335,2433,893	*xywh-#8:262,335,2433,893	*xywh-#8:262,335,2433,893	*xywh-#8:262,335,2433,893	*xywh-#8:262,335,2433,893	*xywh-#8:262,335,2433,893	*
2.AA\] 2.AAA\]	4d</ 4A</ 4F</	.	8.a/L	ko-	nie	.
.	.	.	16a/Jk	-cham	od-	.
.	4d</ 4A</ 4F</	.	4g#X/	szcze-	-mie-	.
.	4d</ 4A</ 4F</	.	4a/	-rze.	-nię.	.
=25	=25	=25	=25	=25	=25	=25
[<2.EE\	4c#X</ 4A</ 4E</	.	8.cc#X\L	A	Nie-	.
.	.	.	16cc#\Jk	Gly-	-na-	.
.	4d</ 4A</ 4E</	.	4.ee\	-ce-	-wi-	.
.	4d</ 4G#X</ 4E</	.	.	.	.	.
.	.	.	8bn\	-ra	-dzieć	.
=26	=26	=26	=26	=26	=26	=26
2.EE\]	4c#X</ 4A</ 4E</	.	8cc#X\L	z za-	ja	.
.	.	.	8ff#X\J	-du-	nie	.
.	4d</ 4A</ 4E</	.	4ee\	-mie-	u-	.
.	4d</ 4G#X</ 4E</	.	4bn\	-niem:	-miem,	.
=27	=27	=27	=27	=27	=27	=27
4AA\	4c#X</ 4A</ 4E</	.	8cc#X\L	Wie-	nie-	.
.	.	.	16cc#\Jk	-rzyć?	-na-	.
.	.	.	16r	.	.	.
4GG#X\	4d</ 4Bn</ 4E</	.	4.ee\	te-	-wi-	.
4EE\	4d</ 4G#X</ 4E</	.	.	.	.	.
.	.	.	8bn\	-go	-dzieć	.
=28	=28	=28	=28	=28	=28	=28
4AA\	4c#X</ 4A</ 4E</	.	8cc#X\L	ja	ja	.
.	.	.	8ff#X\J	nie	nie	.
4GG#X\	4d</ 4Bn</ 4E</	.	4ee\	u-	u-	.
4EE\	4d</ 4G#X</ 4E</	.	4bn\	-miem;	-miem;	.
!!LO:LB:g=original
=29	=29	=29	=29	=29	=29	=29
*xywh-#8:214,1218,2470,903	*xywh-#8:214,1218,2470,903	*xywh-#8:214,1218,2470,903	*xywh-#8:214,1218,2470,903	*xywh-#8:214,1218,2470,903	*xywh-#8:214,1218,2470,903	*
!	!	!	!	!	!	!LO:DY:a
[2.AA\	[2.cn</ [2.A</ [2.E</	.	8ccn\L	co	a	>
.	.	.	8cc\J	to	co	.
.	.	.	4cc\	ko-	ko-	.
.	.	.	4cc\	-chać?	-chać?	]]
=30	=30	=30	=30	=30	=30	=30
!	!	!	!LO:MO:mod=!LO&colon;TX&colon;a&colon;i&colon;t=ritardando	!	!	!
!	!	!	!LO:TX:a:t=ritardando.	!	!	!
2AA\]	2c</] 2A</] 2E</]	.	8cc\L	nie	nie	.
.	.	.	8cc\J	ro-	ro-	.
.	.	.	4cc\	-zu-	-zu-	.
4r	4r<	.	4bn\	-miem!	-miem!	.
=31	=31	=31	=31	=31	=31	=31
4AAA^>/	8b-X^\	.	8.b-X\	nie	nie	.
.	8r	.	.	.	.	.
.	.	.	16b-\	ro-	ro-	.
4B-\ 4G\ 4C#X\	4.a/	.	4.a/	-zu-	-zu-	.
4B-\ 4G\ 4C#\	.	.	.	.	.	.
.	8g/	.	16g/	-miem!	-miem!	.
.	.	.	16r	.	.	.
=32	=32	=32	=32	=32	=32	=32
!	!	!LO:HP:a	!	!	!	!
4B-\ 4G\ 4C#X\	8.b-\L	<	2.r	.	.	.
.	16cc#X\Jk	.	.	.	.	.
4B-\ 4G\ 4C#\	4ff\	[	.	.	.	.
4c#X\ 4B-\ 4G\	4ee\	.	.	.	.	.
=33	=33	=33	=33	=33	=33	=33
4AAA^>/	8.ee\L	.	2.r	.	.	.
.	16dd\Jk	.	.	.	.	.
4d\ 4A\ 4F\	4f/	.	.	.	.	.
4d\ 4A\ 4F\	4g/	.	.	.	.	.
=34	=34	=34	=34	=34	=34	=34
4d\ 4A\ 4F\	2.a/	.	2.r	.	.	.
4d\ 4A\ 4F\	.	.	.	.	.	.
4d\ 4A\ 4F\	.	.	.	.	.	.
!!LO:LB:g=original
=35	=35	=35	=35	=35	=35	=35
*xywh-#8:230,2143,2428,700	*xywh-#8:230,2143,2428,700	*xywh-#8:230,2143,2428,700	*xywh-#8:230,2143,2428,700	*xywh-#8:230,2143,2428,700	*	*
4AAA^>/	8b-X^\	.	2.r	.	.	.
.	8r	.	.	.	.	.
4B-\ 4G\ 4C#X\	4.a/	.	.	.	.	.
4B-\ 4G\ 4C#\	.	.	.	.	.	.
.	8g/	.	.	.	.	.
=36	=36	=36	=36	=36	=36	=36
4B-\ 4G\ 4C#X\	8.b-\L	.	2.r	.	.	.
.	16cc#X\Jk	.	.	.	.	.
4B-\ 4G\ 4C#\	4ff\	.	.	.	.	.
4c#X\ 4B-\ 4G\	4ee\	.	.	.	.	.
=37	=37	=37	=37	=37	=37	=37
4AAA^>/	8.ee\L	.	2.r	.	.	.
.	16dd\Jk	.	.	.	.	.
4d\ 4A\ 4F\	4f/	.	.	.	.	.
4d\ 4A\ 4F\	4g/	.	.	.	.	.
=38	=38	=38	=38	=38	=38	=38
4d\ 4A\ 4F\	2.a/	.	2.r	.	.	.
4d\ 4A\ 4F\	.	.	.	.	.	.
4d\ 4A\ 4F\	.	.	.	.	.	.
=39	=39	=39	=39	=39	=39	=39
4FF#X^>/	8ee-X\	.	2.r	.	.	.
.	8r	.	.	.	.	.
4f#X\ 4e-X\ 4A\	4.dd\	.	.	.	.	.
4f#\ 4e-\ 4A\	.	.	.	.	.	.
.	8cc\	.	.	.	.	.
=40	=40	=40	=40	=40	=40	=40
4f#X\ 4e-X\ 4A\	8.ee-X\L	.	2.r	.	.	.
.	16ff#X\Jk	.	.	.	.	.
4f#\ 4e-\ 4A\	4bb-\	.	.	.	.	.
4f#\ 4e-\ 4A\	4aa\	.	.	.	.	.
!!LO:LB:g=original
=41	=41	=41	=41	=41	=41	=41
*xywh-#8:225,2859,2417,705	*xywh-#8:225,2859,2417,705	*xywh-#8:225,2859,2417,705	*xywh-#8:225,2859,2417,705	*xywh-#8:225,2859,2417,705	*	*
4GG^>/	8.aa\L	.	2.r	.	.	.
.	16gg\Jk	.	.	.	.	.
4g\ 4d\ 4B-\	4b-\	.	.	.	.	.
4g\ 4d\ 4B-\	4cc\	.	.	.	.	.
=42	=42	=42	=42	=42	=42	=42
4g\ 4d\ 4B-\	[2.dd\	.	2.r	.	.	.
4g\ 4d\ 4B-\	.	.	.	.	.	.
4g\ 4d\ 4B-\	.	.	.	.	.	.
=43	=43	=43	=43	=43	=43	=43
4AA/	8.dd\L]	.	2.r	.	.	.
.	16a\Jk	.	.	.	.	.
4d\ 4A\ 4F\	4f/	.	.	.	.	.
4d\ 4A\ 4F\	4b-/	.	.	.	.	.
=44	=44	=44	=44	=44	=44	=44
4d\ 4A\ 4E\	2.a/	.	2.r	.	.	.
4d\ 4A\ 4E\	.	.	.	.	.	.
4c#X\ 4A\ 4E\	.	.	.	.	.	.
=45	=45	=45	=45	=45	=45	=45
2.D\	(8.d/L	.	2.r	.	.	.
.	16B-/Jk)	.	.	.	.	.
.	(4A/	.	.	.	.	.
.	4F</)	.	.	.	.	.
=46	=46	=46	=46	=46	=46	=46
!	!	!	!LO:TX:t=P:problem:brak znaku końca repetycji:mod=	!	!	!
8.D/L	2.ryy	.	2.r	.	.	.
16BB-/Jk	.	.	.	.	.	.
(4AA/	.	.	.	.	.	.
4DD/)	.	.	.	.	.	.
!!LO:PB:g=original
!LO:MO:mod==47:|!	!LO:MO:mod==47:|!	!LO:MO:mod==47:|!	!LO:MO:mod==47:|!	!LO:MO:mod==47:|!	!LO:MO:mod==47:|!	!LO:MO:mod==47:|!
==47	==47	==47	==47	==47	==47	==47
*>C	*>C	*	*>C	*	*	*
*xywh-#9:191,266,2476,738	*xywh-#9:191,266,2476,738	*xywh-#9:191,266,2476,738	*xywh-#9:191,266,2476,738	*xywh-#9:191,266,2476,738	*xywh-#9:191,266,2476,738	*
*tremolo	*	*	*	*	*	*
32DD\LLL	4c#X</ 4B-</ 4G</	.	8.b-/L	Nie	.	.
32D\	.	.	.	.	.	.
32DD\	.	.	.	.	.	.
32D\	.	.	.	.	.	.
32DD\	.	.	.	.	.	.
32D\	.	.	.	.	.	.
32DD\	.	.	16b-/Jk	poj-	.	.
32D\	.	.	.	.	.	.
32DD\	4c#</ 4B-</ 4G</	.	4.a/	-mu-	.	.
32D\	.	.	.	.	.	.
32DD\	.	.	.	.	.	.
32D\	.	.	.	.	.	.
32DD\	.	.	.	.	.	.
32D\	.	.	.	.	.	.
32DD\	.	.	.	.	.	.
32D\	.	.	.	.	.	.
32DD\	4c#</ 4B-</ 4G</	.	.	.	.	.
32D\	.	.	.	.	.	.
32DD\	.	.	.	.	.	.
32D\	.	.	.	.	.	.
!	!	!	!	!LO:MO:mod=-ję	!	!
32DD\	.	.	8g/	-ię	.	.
32D\	.	.	.	.	.	.
32DD\	.	.	.	.	.	.
32D\JJJ	.	.	.	.	.	.
=48	=48	=48	=48	=48	=48	=48
32DD\LLL	4c#X</ 4B-</ 4G</	.	8.b-\L	dziś	.	.
32D\	.	.	.	.	.	.
32DD\	.	.	.	.	.	.
32D\	.	.	.	.	.	.
32DD\	.	.	.	.	.	.
32D\	.	.	.	.	.	.
32DD\	.	.	16cc#X\Jk	sam	.	.
32D\	.	.	.	.	.	.
32DD\	4c#</ 4B-</ 4G</	.	4ff\	sie-	.	.
32D\	.	.	.	.	.	.
32DD\	.	.	.	.	.	.
32D\	.	.	.	.	.	.
32DD\	.	.	.	.	.	.
32D\	.	.	.	.	.	.
32DD\	.	.	.	.	.	.
32D\	.	.	.	.	.	.
32DD\	4c#</ 4B-</ 4G</	.	4ee\	-bie;	.	.
32D\	.	.	.	.	.	.
32DD\	.	.	.	.	.	.
32D\	.	.	.	.	.	.
32DD\	.	.	.	.	.	.
32D\	.	.	.	.	.	.
32DD\	.	.	.	.	.	.
32D\JJJ	.	.	.	.	.	.
=49	=49	=49	=49	=49	=49	=49
32DD\LLL	4d</ 4A</ 4F</	.	8.dd\L	gdyć	.	.
32D\	.	.	.	.	.	.
32DD\	.	.	.	.	.	.
32D\	.	.	.	.	.	.
32DD\	.	.	.	.	.	.
32D\	.	.	.	.	.	.
32DD\	.	.	16a\Jk	nie	.	.
32D\	.	.	.	.	.	.
32DD\	4d</ 4A</ 4F</	.	4f/	wi-	.	.
32D\	.	.	.	.	.	.
32DD\	.	.	.	.	.	.
32D\	.	.	.	.	.	.
32DD\	.	.	.	.	.	.
32D\	.	.	.	.	.	.
32DD\	.	.	.	.	.	.
32D\	.	.	.	.	.	.
32DD\	4d</ 4A</ 4F</	.	4b-/	-dzę	.	.
32D\	.	.	.	.	.	.
32DD\	.	.	.	.	.	.
32D\	.	.	.	.	.	.
32DD\	.	.	.	.	.	.
32D\	.	.	.	.	.	.
32DD\	.	.	.	.	.	.
32D\JJJ	.	.	.	.	.	.
=50	=50	=50	=50	=50	=50	=50
32DD\LLL	4d</ 4A</ 4F</	.	8.a/L	to	.	.
32D\	.	.	.	.	.	.
32DD\	.	.	.	.	.	.
32D\	.	.	.	.	.	.
32DD\	.	.	.	.	.	.
32D\	.	.	.	.	.	.
32DD\	.	.	16a/Jk	cier-	.	.
32D\	.	.	.	.	.	.
32DD\	4d</ 4A</ 4F</	.	4g#X/	-pie-	.	.
32D\	.	.	.	.	.	.
32DD\	.	.	.	.	.	.
32D\	.	.	.	.	.	.
32DD\	.	.	.	.	.	.
32D\	.	.	.	.	.	.
32DD\	.	.	.	.	.	.
32D\	.	.	.	.	.	.
32DD\	4d</ 4A</ 4F</	.	4a/	-nie,	.	.
32D\	.	.	.	.	.	.
32DD\	.	.	.	.	.	.
32D\	.	.	.	.	.	.
32DD\	.	.	.	.	.	.
32D\	.	.	.	.	.	.
32DD\	.	.	.	.	.	.
32D\JJJ	.	.	.	.	.	.
=51	=51	=51	=51	=51	=51	=51
32DD\LLL	4c#X</ 4B-</ 4G</	.	8b-/L	wi-	.	.
32D\	.	.	.	.	.	.
32DD\	.	.	.	.	.	.
32D\	.	.	.	.	.	.
32DD\	.	.	16b-/Jk	-dzę!	.	.
32D\	.	.	.	.	.	.
32DD\	.	.	16r	.	.	.
32D\	.	.	.	.	.	.
32DD\	4c#</ 4B-</ 4G</	.	4.a/	no-	.	.
32D\	.	.	.	.	.	.
32DD\	.	.	.	.	.	.
32D\	.	.	.	.	.	.
32DD\	.	.	.	.	.	.
32D\	.	.	.	.	.	.
32DD\	.	.	.	.	.	.
32D\	.	.	.	.	.	.
32DD\	4c#</ 4B-</ 4G</	.	.	.	.	.
32D\	.	.	.	.	.	.
32DD\	.	.	.	.	.	.
32D\	.	.	.	.	.	.
32DD\	.	.	8g/	-we	.	.
32D\	.	.	.	.	.	.
32DD\	.	.	.	.	.	.
32D\JJJ	.	.	.	.	.	.
!!LO:LB:g=original
=52	=52	=52	=52	=52	=52	=52
*xywh-#9:196,929,2444,721	*xywh-#9:196,929,2444,721	*xywh-#9:196,929,2444,721	*xywh-#9:196,929,2444,721	*xywh-#9:196,929,2444,721	*xywh-#9:196,929,2444,721	*
32DD\LLL	4c#X</ 4B-</ 4G</	.	8.b-\L	u-	.	.
32D\	.	.	.	.	.	.
32DD\	.	.	.	.	.	.
32D\	.	.	.	.	.	.
32DD\	.	.	.	.	.	.
32D\	.	.	.	.	.	.
32DD\	.	.	16cc#X\Jk	-drę-	.	.
32D\	.	.	.	.	.	.
32DD\	4c#</ 4B-</ 4G</	.	4ff\	-cze-	.	.
32D\	.	.	.	.	.	.
32DD\	.	.	.	.	.	.
32D\	.	.	.	.	.	.
32DD\	.	.	.	.	.	.
32D\	.	.	.	.	.	.
32DD\	.	.	.	.	.	.
32D\	.	.	.	.	.	.
!	!	!	!	!LO:MO:mod=-nie.	!	!
32DD\	4c#</ 4B-</ 4G</	.	4ee\	-nie	.	.
32D\	.	.	.	.	.	.
32DD\	.	.	.	.	.	.
32D\	.	.	.	.	.	.
32DD\	.	.	.	.	.	.
32D\	.	.	.	.	.	.
32DD\	.	.	.	.	.	.
32D\JJJ	.	.	.	.	.	.
=53	=53	=53	=53	=53	=53	=53
!	!	!	!	!LO:MO:mod=Źle	!	!
32DD\LLL	4d</ 4A</ 4F</	.	8.dd\L	źle	.	.
32D\	.	.	.	.	.	.
32DD\	.	.	.	.	.	.
32D\	.	.	.	.	.	.
32DD\	.	.	.	.	.	.
32D\	.	.	.	.	.	.
32DD\	.	.	16a\Jk	mi	.	.
32D\	.	.	.	.	.	.
32DD\	4d</ 4A</ 4F</	.	4f/	z to-	.	.
32D\	.	.	.	.	.	.
32DD\	.	.	.	.	.	.
32D\	.	.	.	.	.	.
32DD\	.	.	.	.	.	.
32D\	.	.	.	.	.	.
32DD\	.	.	.	.	.	.
32D\	.	.	.	.	.	.
32DD\	4d</ 4A</ 4F</	.	4b-/	-bą,	.	.
32D\	.	.	.	.	.	.
32DD\	.	.	.	.	.	.
32D\	.	.	.	.	.	.
32DD\	.	.	.	.	.	.
32D\	.	.	.	.	.	.
32DD\	.	.	.	.	.	.
32D\JJJ	.	.	.	.	.	.
=54	=54	=54	=54	=54	=54	=54
!	!	!	!	!LO:MO:mod=źle	!	!
32DD\LLL	4d</ 4A</ 4F</	.	8.a/L	Źle	.	.
32D\	.	.	.	.	.	.
32DD\	.	.	.	.	.	.
32D\	.	.	.	.	.	.
32DD\	.	.	.	.	.	.
32D\	.	.	.	.	.	.
32DD\	.	.	16a/Jk	bez	.	.
32D\	.	.	.	.	.	.
32DD\	4d</ 4A</ 4F</	.	4g#X/	cie-	.	.
32D\	.	.	.	.	.	.
32DD\	.	.	.	.	.	.
32D\	.	.	.	.	.	.
32DD\	.	.	.	.	.	.
32D\	.	.	.	.	.	.
32DD\	.	.	.	.	.	.
32D\	.	.	.	.	.	.
!	!	!	!	!LO:MO:mod=-bie.	!	!
32DD\	4d</ 4A</ 4F</	.	4a/	-bie,	.	.
32D\	.	.	.	.	.	.
32DD\	.	.	.	.	.	.
32D\	.	.	.	.	.	.
32DD\	.	.	.	.	.	.
32D\	.	.	.	.	.	.
32DD\	.	.	.	.	.	.
32D\JJJ	.	.	.	.	.	.
=55	=55	=55	=55	=55	=55	=55
32CC\LLL	4f/ 4c/ 4A/	ff	8a/L	Te-	.	ff
32C\	.	.	.	.	.	.
32CC\	.	.	.	.	.	.
32C\	.	.	.	.	.	.
32CC\	.	.	8a/J	-raz,	.	.
32C\	.	.	.	.	.	.
32CC\	.	.	.	.	.	.
32C\	.	.	.	.	.	.
32CC\	4f/ 4c/ 4B-/	.	4.cc\	te-	.	.
32C\	.	.	.	.	.	.
32CC\	.	.	.	.	.	.
32C\	.	.	.	.	.	.
32CC\	.	.	.	.	.	.
32C\	.	.	.	.	.	.
32CC\	.	.	.	.	.	.
32C\	.	.	.	.	.	.
32CC\	4e/ 4c/ 4B-/	.	.	.	.	.
32C\	.	.	.	.	.	.
32CC\	.	.	.	.	.	.
32C\	.	.	.	.	.	.
32CC\	.	.	8g/	-raz	.	.
32C\	.	.	.	.	.	.
32CC\	.	.	.	.	.	.
32C\JJJ	.	.	.	.	.	.
=56	=56	=56	=56	=56	=56	=56
32CC\LLL	4f/ 4c/ 4A/	.	8a\L	wie-	.	.
32C\	.	.	.	.	.	.
32CC\	.	.	.	.	.	.
32C\	.	.	.	.	.	.
32CC\	.	.	8dd\J	-rzyć	.	.
32C\	.	.	.	.	.	.
32CC\	.	.	.	.	.	.
32C\	.	.	.	.	.	.
32CC\	4f/ 4c/ 4B-/	.	4cc\	u-	.	.
32C\	.	.	.	.	.	.
32CC\	.	.	.	.	.	.
32C\	.	.	.	.	.	.
32CC\	.	.	.	.	.	.
32C\	.	.	.	.	.	.
32CC\	.	.	.	.	.	.
32C\	.	.	.	.	.	.
32CC\	4e/ 4c/ 4B-/	.	4g/	-miem,	.	.
32C\	.	.	.	.	.	.
32CC\	.	.	.	.	.	.
32C\	.	.	.	.	.	.
32CC\	.	.	.	.	.	.
32C\	.	.	.	.	.	.
32CC\	.	.	.	.	.	.
32C\JJJ	.	.	.	.	.	.
*Xtremolo	*	*	*	*	*	*
!!LO:LB:g=original
=57	=57	=57	=57	=57	=57	=57
*xywh-#9:191,1582,2433,689	*xywh-#9:191,1582,2433,689	*xywh-#9:191,1582,2433,689	*xywh-#9:191,1582,2433,689	*xywh-#9:191,1582,2433,689	*xywh-#9:191,1582,2433,689	*
4F\	4f/ 4c/ 4A/	.	8a/L	i	.	.
.	.	.	8a/J	co	.	.
4E\	4g/ 4c/ 4B-/	.	4.cc\	ko-	.	.
4C/	4e/ 4c/ 4B-/	.	.	.	.	.
.	.	.	8g/	-chać?	.	.
=58	=58	=58	=58	=58	=58	=58
4F\	4f/ 4c/ 4A/	.	8a\L	już	.	.
.	.	.	8dd\J	ro-	.	.
4E\	4g/ 4c/ 4B-/	.	4cc\	-zu-	.	.
4C/	4e/ 4c/ 4B-/	.	4g/	-miem.	.	.
=59	=59	=59	=59	=59	=59	=59
*tremolo	*	*	*	*	*	*
32FF\LLL	4f/ 4c/ 4A/	.	8a/L	Te-	.	.
32F\	.	.	.	.	.	.
32FF\	.	.	.	.	.	.
32F\	.	.	.	.	.	.
!	!	!	!	!LO:MO:mod=-raz,	!	!
32FF\	.	.	8a/J	-raz	.	.
32F\	.	.	.	.	.	.
32FF\	.	.	.	.	.	.
32F\	.	.	.	.	.	.
32FF\	4f/ 4c/ 4A/	.	4g#X/	te-	.	.
32F\	.	.	.	.	.	.
32FF\	.	.	.	.	.	.
32F\	.	.	.	.	.	.
32FF\	.	.	.	.	.	.
32F\	.	.	.	.	.	.
32FF\	.	.	.	.	.	.
32F\	.	.	.	.	.	.
32FF\	4f/ 4c/ 4A/	.	4a/	-raz	.	.
32F\	.	.	.	.	.	.
32FF\	.	.	.	.	.	.
32F\	.	.	.	.	.	.
32FF\	.	.	.	.	.	.
32F\	.	.	.	.	.	.
32FF\	.	.	.	.	.	.
32F\JJJ	.	.	.	.	.	.
=60	=60	=60	=60	=60	=60	=60
32FF\LLL	4a/ 4e-X/ 4c/	.	8cc\L	wie-	.	.
32F\	.	.	.	.	.	.
32FF\	.	.	.	.	.	.
32F\	.	.	.	.	.	.
32FF\	.	.	8cc\J	-rzyć	.	.
32F\	.	.	.	.	.	.
32FF\	.	.	.	.	.	.
32F\	.	.	.	.	.	.
32FF\	4a/ 4e-/ 4c/	.	4bn\	u-	.	.
32F\	.	.	.	.	.	.
32FF\	.	.	.	.	.	.
32F\	.	.	.	.	.	.
32FF\	.	.	.	.	.	.
32F\	.	.	.	.	.	.
32FF\	.	.	.	.	.	.
32F\	.	.	.	.	.	.
32FF\	4a/ 4e-/ 4c/	.	4a/	-miem.	.	.
32F\	.	.	.	.	.	.
32FF\	.	.	.	.	.	.
32F\	.	.	.	.	.	.
32FF\	.	.	.	.	.	.
32F\	.	.	.	.	.	.
32FF\	.	.	.	.	.	.
32F\JJJ	.	.	.	.	.	.
*Xtremolo	*	*	*	*	*	*
=61	=61	=61	=61	=61	=61	=61
!	!	!	!	!LO:MO:mod=Ach,	!	!
4EE/	8cc#X/ 8a/ 8en/ 8c#X/	.	[2.ee\	Ach	.	.
.	8r	.	.	.	.	.
!	!	!LO:DY:b=2	!	!	!	!
4d\ 4G#X\ 4E\	4.ee\	ff	.	.	.	.
4d\ 4G#\ 4E\	.	.	.	.	.	.
.	8bn\	.	.	.	.	.
!!LO:LB:g=original
=62	=62	=62	=62	=62	=62	=62
*xywh-#9:175,2175,2422,732	*xywh-#9:175,2175,2422,732	*xywh-#9:175,2175,2422,732	*xywh-#9:175,2175,2422,732	*xywh-#9:175,2175,2422,732	*xywh-#9:175,2175,2422,732	*
4c#X\ 4A\ 4E\	8cc#X\L	.	2.ee\_	.	.	.
.	8ff#X\J	.	.	.	.	.
4d\ 4G#X\ 4E\	4ee\	.	.	.	.	.
4d\ 4G#\ 4E\	4bn\	.	.	.	.	.
=63	=63	=63	=63	=63	=63	=63
4c#X\ 4A\ 4E\	8cc#X\	.	2.ee\_	.	.	.
.	8r	.	.	.	.	.
4d\ 4G#X\ 4E\	4.ee\	.	.	.	.	.
4d\ 4G#\ 4E\	.	.	.	.	.	.
.	8bn\	.	.	.	.	.
=64	=64	=64	=64	=64	=64	=64
4c#X\ 4A\ 4E\	8.cc#X\L	.	2ee\]	.	.	.
.	16ff#X\Jk	.	.	.	.	.
4d\ 4G#X\ 4E\	4ee\	.	.	.	.	.
4r	4dd\	.	4r	.	.	.
=65	=65	=65	=65	=65	=65	=65
2.ryy	8.bn/L	.	2.r	.	.	.
.	16g#X/Jk	.	.	.	.	.
.	4e/	.	.	.	.	.
.	4d/	.	.	.	.	.
=66	=66	=66	=66	=66	=66	=66
8.Bn/L	2.ryy	.	2.r	.	.	.
16G#X/Jk	.	.	.	.	.	.
4E/	.	.	.	.	.	.
4BBn/	.	.	.	.	.	.
=67	=67	=67	=67	=67	=67	=67
4EE/	2.ryy	.	4r	.	.	.
4r	.	.	4.ee;\	już	.	.
4r	.	.	.	.	.	.
.	.	.	8dd\	ro-	.	.
=68	=68	=68	=68	=68	=68	=68
4AAA/	8b-X^\	.	4dd\	-zu-	.	.
.	8r	.	.	.	.	.
4B-\ 4G\ 4C#X\	4.a/	.	8cc#X\	-miem!	.	.
.	.	.	8r	.	.	.
4B-\ 4G\ 4C#\	.	.	4r	.	.	.
.	8g/	.	.	.	.	.
!!LO:LB:g=original
=69	=69	=69	=69	=69	=69	=69
*xywh-#9:132,2849,2454,754	*xywh-#9:132,2849,2454,754	*xywh-#9:132,2849,2454,754	*xywh-#9:132,2849,2454,754	*xywh-#9:132,2849,2454,754	*xywh-#9:132,2849,2454,754	*
4B-\ 4G\ 4C#X\	8.b-\L	.	2.r	.	.	.
.	16cc#X\Jk	.	.	.	.	.
4B-\ 4G\ 4C#\	4ff\	.	.	.	.	.
4B-\ 4G\ 4C#\	4ee\	.	.	.	.	.
=70	=70	=70	=70	=70	=70	=70
!	!	!	!	!	!	!LO:DY:a
!	!	!	!	!	!	!LO:MO:mod=.
4B-\ 4G\ 4C#X\	4bb-\	.	4r	.	.	pp
!	!	!	!	!	!	!LO:MO:null:mod=pp
4r	4r	.	4.b-;\	już	.	.
4r	4r	.	.	.	.	.
!	!	!	!LO:MO:mod=!LO&colon;TX&colon;a&colon;i&colon;t=morendo	!	!	!
!	!	!	!LO:TX:a:t=morendo.	!	!	!
.	.	.	8b-\	ro-	.	.
=71	=71	=71	=71	=71	=71	=71
*	*	*^	*	*	*	*
*xywh-#9:132,2849,2454,754	*xywh-#9:132,2849,2454,754	*xywh-#9:132,2849,2454,754	*xywh-#9:132,2849,2454,754	*xywh-#9:132,2849,2454,754	*xywh-#9:132,2849,2454,754	*	*
4r	4ryy	.	.	4b-\	-zu-	.	.
4r	4ryy	.	.	4..a/	-miem.	.	.
!	!	!	!LO:DY:b=2	!	!	!	!
4AA\	4c#X</ 4A</ 4G</	p	p	.	.	.	.
.	.	.	.	16r	.	.	.
*	*	*v	*v	*	*	*	*
=72	=72	=72	=72	=72	=72	=72
[2.DD\	(<8.d</L 8.A</ 8.F</	.	2.r	.	.	.
.	16B-</Jk)	.	.	.	.	.
.	(<4A</	.	.	.	.	.
.	4F</)	.	.	.	.	.
=73	=73	=73	=73	=73	=73	=73
(>8.DD\L]	4D</	.	2.r	.	.	.
16BB-\Jk)	.	.	.	.	.	.
4AA\	4r	.	.	.	.	.
4FF\	4r	.	.	.	.	.
=74	=74	=74	=74	=74	=74	=74
4DD/	2.ryy	.	2.r	.	.	.
4r	.	.	.	.	.	.
4r	.	.	.	.	.	.
*clefG2	*	*	*	*	*	*
=75	=75	=75	=75	=75	=75	=75
4dd/: 4d:/	4fff\: 4ff:\	.	2.r	.	.	.
4r	4r	.	.	.	.	.
4r	4r	.	.	.	.	.
*clefF4	*	*	*	*	*	*
=76	=76	=76	=76	=76	=76	=76
!	!	!LO:MO:null:mod=ppp	!	!	!	!
4DD/ 4DDD/	2.ryy	.	2.r	.	.	.
!	!	!LO:MO:mod=.	!	!	!	!
4r	.	ppp	.	.	.	.
4r	.	.	.	.	.	.
==	==	==	==	==	==	==
*-	*-	*-	*-	*-	*-	*-
!!!system-decoration: s1{(s2,s3)}
!!!RDF**kern: > = above
!!!RDF**kern: < = below
!!!filter-modern: shed -e "s/LO:DY:(a|b|rj)/LO:dy:$1/L" | modori -m
!!!ENC: Berenika Jozajtis
!!!END: 2022-05-14
!!!EED: Andrzej Borzym
!!!EEV: 2022-05-22
!!!ENC-modern: Marta Lawrence
!!!END-modern: 2022-07-20
!!!ENC-iiif: Magdalena Agnieszka Krok
!!!END-iiif: 2022-10-05
